X:115
T:Brudmarsch från Tolg,
T:efter Jonas Johansson (SvL Sm. 115)
R:Marsch
O:Tolg, Småland
S:efter Jonas Johansson 
B:Svenska Låtar Småland
N:SvL Sm. 115
M:C|
L:1/8
K:C
|:G2 GG G2 G2|A4 G4|c2 cc (c2d2)|e4 d2 e2|
((3f2e2d2 c2) A2|G2 f2 f4|e2 (e2 d2) d2|c6 z2:|
|:c2 (d2 e2) f2| g6 (g2|e2) (g2 e2) (g2|a2) (g2 f2) e2|
d4 d2 e2|(f6 gf)|e2 (e2 d2) d2|c6 z2:|

